svg/emoji_u2139.svg

<?xml version="1.0" encoding="UTF-8"?>
<svg width="128" height="128" enable-background="new 0 0 128 128" xmlns="http://www.w3.org/2000/svg"><linearGradient id="c" x1="64" x2="64" y1="15" y2="113.55" gradientUnits="userSpaceOnUse"><stop stop-color="#F5F5F5" offset="0"/><stop stop-color="#F0F0F0" offset=".4422"/><stop stop-color="#E0E0E0" offset=".9963"/><stop stop-color="#E0E0E0" offset="1"/></linearGradient><circle cx="64" cy="64" r="56" fill="url(#c)"/><linearGradient id="b" x1="64" x2="64" y1="4.3143" y2="125.23" gradientUnits="userSpaceOnUse"><stop stop-color="#29B6F6" offset="0"/><stop stop-color="#169FE4" offset=".5369"/><stop stop-color="#0288D1" offset=".9954"/></linearGradient><path d="m64 16c26.47 0 48 21.53 48 48s-21.53 48-48 48-48-21.53-48-48 21.53-48 48-48m0-12c-33.14 0-60 26.86-60 60s26.86 60 60 60 60-26.86 60-60-26.86-60-60-60z" fill="url(#b)"/><g opacity=".2"><path d="m64 16c26.47 0 48 21.53 48 48s-21.53 48-48 48-48-21.53-48-48 21.53-48 48-48m0-3c-28.12 0-51 22.88-51 51s22.88 51 51 51 51-22.88 51-51-22.88-51-51-51z" fill="#424242"/></g><g fill="url(#a)"><linearGradient id="a" x1="64" x2="64" y1="4" y2="124" gradientUnits="userSpaceOnUse"><stop stop-color="#29B6F6" offset="0"/><stop stop-color="#169FE4" offset=".5369"/><stop stop-color="#0288D1" offset=".9954"/></linearGradient><path d="m69 102h-10c-1.1 0-2-0.9-2-2v-48c0-1.1 0.9-2 2-2h10c1.1 0 2 0.9 2 2v48c0 1.1-0.9 2-2 2z"/><circle cx="64" cy="35" r="9"/></g><g opacity=".2"><path d="M64,7c31.43,0,57,25.57,57,57s-25.57,57-57,57S7,95.43,7,64S32.57,7,64,7 M64,4 C30.86,4,4,30.86,4,64s26.86,60,60,60s60-26.86,60-60S97.14,4,64,4L64,4z" fill="#424242"/></g><g fill="#424242" opacity=".2"><path d="m68 53v46h-8v-46h8m1-3h-10c-1.1 0-2 0.9-2 2v48c0 1.1 0.9 2 2 2h10c1.1 0 2-0.9 2-2v-48c0-1.1-0.9-2-2-2z"/><path d="m64 29c3.31 0 6 2.69 6 6s-2.69 6-6 6-6-2.69-6-6 2.69-6 6-6m0-3c-4.97 0-9 4.03-9 9s4.03 9 9 9 9-4.03 9-9-4.03-9-9-9z"/></g></svg>

<svg width="128" height="128" style="enable-background:new 0 0 128 128;" xmlns="http://www.w3.org/2000/svg" xmlns:xlink="http://www.w3.org/1999/xlink">
  <g>
    <linearGradient id="SVGID_1_" gradientUnits="userSpaceOnUse" x1="64" x2="64" y1="15" y2="113.5464">
      <stop offset="0" style="stop-color:#F5F5F5"/>
      <stop offset="0.4422" style="stop-color:#F0F0F0"/>
      <stop offset="0.9963" style="stop-color:#E0E0E0"/>
      <stop offset="1" style="stop-color:#E0E0E0"/>
    </linearGradient>
    <circle cx="64" cy="64" r="56" style="fill:url(#SVGID_1_);"/>
    <linearGradient id="SVGID_2_" gradientUnits="userSpaceOnUse" x1="64" x2="64" y1="4.3143" y2="125.2267">
      <stop offset="0" style="stop-color:#29B6F6"/>
      <stop offset="0.5369" style="stop-color:#169FE4"/>
      <stop offset="0.9954" style="stop-color:#0288D1"/>
    </linearGradient>
    <path d="M64,16c26.47,0,48,21.53,48,48s-21.53,48-48,48S16,90.47,16,64S37.53,16,64,16 M64,4 C30.86,4,4,30.86,4,64s26.86,60,60,60s60-26.86,60-60S97.14,4,64,4L64,4z" style="fill:url(#SVGID_2_);"/>
    <g style="opacity:0.2;">
      <path d="M64,16c26.47,0,48,21.53,48,48s-21.53,48-48,48S16,90.47,16,64S37.53,16,64,16 M64,13 c-28.12,0-51,22.88-51,51s22.88,51,51,51s51-22.88,51-51S92.12,13,64,13L64,13z" style="fill:#424242;"/>
    </g>
    <g>
      <linearGradient id="SVGID_3_" gradientUnits="userSpaceOnUse" x1="64" x2="64" y1="4" y2="124.0042">
        <stop offset="0" style="stop-color:#29B6F6"/>
        <stop offset="0.5369" style="stop-color:#169FE4"/>
        <stop offset="0.9954" style="stop-color:#0288D1"/>
      </linearGradient>
      <path d="M69,102H59c-1.1,0-2-0.9-2-2V52c0-1.1,0.9-2,2-2h10c1.1,0,2,0.9,2,2v48 C71,101.1,70.1,102,69,102z" style="fill:url(#SVGID_3_);"/>
      <linearGradient id="SVGID_4_" gradientUnits="userSpaceOnUse" x1="64" x2="64" y1="4" y2="124.0042">
        <stop offset="0" style="stop-color:#29B6F6"/>
        <stop offset="0.5369" style="stop-color:#169FE4"/>
        <stop offset="0.9954" style="stop-color:#0288D1"/>
      </linearGradient>
      <circle cx="64" cy="35" r="9" style="fill:url(#SVGID_4_);"/>
    </g>
    <g style="opacity:0.2;">
      <path d="M64,7c31.43,0,57,25.57,57,57s-25.57,57-57,57S7,95.43,7,64S32.57,7,64,7 M64,4 C30.86,4,4,30.86,4,64s26.86,60,60,60s60-26.86,60-60S97.14,4,64,4L64,4z" style="fill:#424242;"/>
    </g>
    <g style="opacity:0.2;">
      <path d="M68,53v46h-8V53H68 M69,50H59c-1.1,0-2,0.9-2,2v48c0,1.1,0.9,2,2,2h10c1.1,0,2-0.9,2-2V52 C71,50.9,70.1,50,69,50L69,50z" style="fill:#424242;"/>
      <path d="M64,29c3.31,0,6,2.69,6,6s-2.69,6-6,6s-6-2.69-6-6S60.69,29,64,29 M64,26c-4.97,0-9,4.03-9,9 s4.03,9,9,9c4.97,0,9-4.03,9-9S68.97,26,64,26L64,26z" style="fill:#424242;"/>
    </g>
  </g>
</svg>
